icons/pill-outline.svg

<svg width="24" height="24" viewBox="0 0 24 24" fill="none" xmlns="http://www.w3.org/2000/svg">
<path d="M3.53498 3.53502C4.5518 2.5182 7.77763 0.706596 10.6061 3.53502L20.507 13.4359C21.9205 14.8494 23.0045 18.0095 20.507 20.507C18.0102 23.0038 14.8501 21.9212 13.4359 20.507L3.53498 10.6061C0.706557 7.77766 2.51817 4.55184 3.53498 3.53502ZM4.9492 4.94924C3.46003 6.4384 4.24209 8.48477 4.9492 9.19188L9.19184 13.4345L13.4345 9.19188L9.19184 4.94924C8.48473 4.24213 6.43907 3.45936 4.9492 4.94924ZM19.0623 19.0921C20.5522 17.6022 19.7694 15.5565 19.0623 14.8494L14.8197 10.6068L10.5771 14.8494L14.8197 19.0921C15.5268 19.7992 17.5725 20.582 19.0623 19.0921Z" fill="#3A3A47"/>
</svg>

<svg xmlns="http://www.w3.org/2000/svg" width="24" height="24" viewBox="0 0 24 24">
    <path fill="#3A3A47" fill-rule="evenodd" d="M3.536 3.536c1.016-1.017 4.242-2.829 7.07 0l9.9 9.9c1.414 1.413 2.498 4.574 0 7.07-2.496 2.498-5.655 1.416-7.07 0l-9.9-9.9c-2.829-2.828-1.017-6.054 0-7.07zm11.284 7.071l-4.243 4.243 4.243 4.242c.707.707 2.753 1.49 4.242 0 1.49-1.49.707-3.535 0-4.242l-4.242-4.243zM4.95 4.95c-1.438 1.438-.759 3.395-.074 4.165l.074.077 4.242 4.243 4.243-4.243L9.192 4.95c-.707-.707-2.753-1.49-4.242 0z"/>
</svg>
